X:1
T:Vivo in foco amoroso
T:Simone Molinaro Genovese
T:Source : Canzonette a tre voci---Libro secondo---Venetia---R.Amadino---1600. Editor : André Vierendeels (30/11/16).
T:Notes : Original clefs : C3, C4, F4
T:Vivo in foco amoroso
T:©
T:©
C:Simone Molinaro Genovese
Z:©
%%score [ 1 2 3 ]
L:1/8
Q:1/4=96
M:4/4
K:C
V:1 treble-8 nm="Tenor 1" snm="T 1"
V:2 treble-8 nm="Tenor 2" snm="T 2"
V:3 bass nm="Bass" snm="B"
V:1
 B2 c2 d4 | d2 f2 e4 | d4 A2 B2 | c2 e4 c2 | B4 A4 :: c4 B2 c2 | d2 d2 dgfd | e4 e2 e2 | %8
w: Vi- vo'in fo-|co'a- mo- ro-|so, non cru-|del, non pen-|so- so,|ch'ar- d'e non|co- ce tant' al- let- ta'e|pia- ce, quant'|
w: Qui di mo-|bi- le'in ge-|gno, ne fe-|ri- tà ne|sde- gno,|ne dub- bia|fe- de'o cer- ta ge- lo-|si- a, tur-|
w: Ma fer- mez-|za'e pie- ta-|te, va- lor|con hu- mil-|ta- te,|ni- glet- to|vol- to'e col- ti- va- ta|fre- de, e-|
w: O bel- tà|senz' in- gan-|ni, poi che|de'i miei ver-|di'an- ni,|non fos- s'il|prim' hor l'ul- ti- mo de-|si- o, sa-|
 d2 c2 B2 B2 | A4 G4 :| %10
w: hà sa- lu- t'e|pa- ce.|
w: ba le gio- ia|mi- a.|
w: del mio'a- mor mer-|ce- de.|
w: rai del vi- ver|mi- o.|
V:2
 d2 c2 B4 | A2 d4 ^c2 | d4 ^F2 G2 | A2 c4 A2- | A2 ^G2 A4 :: z2 A2 ^G2 A2 | B2 B2 BGAB | c4 c2 c2 | %8
w: Vi- vo'in fo-|co'a- mo- ro-|so, non cru-|del, non pen-|* so- so,|ch'ar- d'e non|co- ce tant' al- let- ta'e|pia- ce, quant'|
w: Qui di mo-|bi- le'in ge-|gno, ne fe-|ri- tà ne|_ sde- gno,|ne dub- bia|fe- de'o cer- ta ge- li-|si- a, tur-|
w: Ma fer- mez-|za'e pie- ta-|te, va- lor|con hu- mil-|* ta- te.|ne- glet- to|vol- to'e col- ti- va- ta|fre- de, e|
w: O- bel- tà|senz' in- gan-|ni, poi che|de'i miei ver-|di'an- * ni,|non fos- s'il|prim'- hor l'ul- ti- mo de-|si- o, sa-|
 B2 A2 G2 G2- | G2 ^F2 G4 :| %10
w: hà salu- t'e pa-|* * ce.|
w: ba le gio- ia|_ mi- a.|
w: del mio'a- mor mer-|* ce- de.|
w: rai del vi- ver|_ mi- o.|
V:3
 G,2 A,2 G,4 | D,2 D,2 A,4 | D,4 D,2 B,,2 | A,,4 C,3 D, | E,4 A,,4 :: A,4 E,2 A,2 | %6
w: Vi- vo'in fo-|co'a- mo- ro-|so, non cru-|del, non pen-|so- so,|ch'ar- d'e non|
w: Qui di mo-|bi- le'in ge-|gno, ne fe-|ri- tà ne|sde- gno,|ne dub- bia|
w: Ma fer- mez-|za'e pie- ta-|te, va- lor|con hu- mil-|ta- te,|ne- glet- to|
w: O bel- tà|senz' in- gan-|ni, poi che|de'i miei ver-|di'an- ni,|non fos- s'il|
 G,2 G,2 G,E,F,G, | C,4 C,2 C,2 | G,,2 A,,2 B,,3 C, | D,4 G,,4 :| %10
w: co- ce tant' al let- ta'e|pia- ce, quant'|hà sa- lu- t'e|pa- ce.|
w: fe- de'o cer- ta ge- lo-|si- a, tur-|ba le gio- ia|mi- a.|
w: vol- to'e col- ti- va- ta|fre- de, e|del mio'a- mor mer-|ce- de.|
w: prim' hor l'ul- ti- mo de-|si- o, sa-|rai del vi- ver|mi- o.|

